X: 743
T: Chanjun xiaodiao
L: 1/8
M: 4/8
K: F
c c Bc2 [I:setbarnb 1]| 
d2AG2 | 
c c Bc2 | 
d2AG2 | 
f2d/ d/ f d | 
c/ c/ f c B | 
G G/ F/ E F | 
G2DC2 |]

@@@ Tune index: 9617
